public/logos/AS.svg

<?xml version="1.0" encoding="UTF-8"?>
<svg xmlns="http://www.w3.org/2000/svg" xmlns:xlink="http://www.w3.org/1999/xlink" width="176pt" height="53.33pt" viewBox="0 0 176 53.33" version="1.1">
<defs>
<clipPath id="clip1">
  <path d="M 115 3 L 154 3 L 154 53.328125 L 115 53.328125 Z M 115 3 "/>
</clipPath>
</defs>
<g id="surface1">
<path style=" stroke:none;fill-rule:nonzero;fill:rgb(11.219788%,21.354675%,36.289978%);fill-opacity:1;" d="M 86.3125 2.089844 L 66.222656 35.820312 C 64.128906 39.289062 62.980469 42.796875 62.664062 46.175781 L 54.800781 46.175781 C 55.335938 41.90625 57.027344 37.863281 60.445312 32.039062 L 74.484375 8.488281 C 77.289062 3.824219 80.089844 2.128906 85.160156 2.128906 L 86.3125 2.128906 L 86.3125 2.089844 "/>
<path style=" stroke:none;fill-rule:nonzero;fill:rgb(11.219788%,21.354675%,36.289978%);fill-opacity:1;" d="M 84.753906 37.464844 C 83.289062 38.84375 80.445312 40.882812 78.046875 40.929688 C 76.398438 40.84375 76.3125 39.285156 77.417969 37.152344 C 81.648438 29.019531 86.132812 24.710938 91.597656 24.753906 L 92.578125 24.753906 Z M 92.175781 20.222656 C 82 20.222656 75.734375 26.175781 70.226562 39.15625 C 68.84375 42.398438 68.042969 46.441406 72.757812 46.402344 C 75.421875 46.355469 79.910156 44.886719 83.070312 42.707031 C 82.800781 43.773438 82.664062 45.242188 82.757812 46.128906 L 89.910156 46.128906 C 90.175781 43.328125 91.242188 39.867188 93.59375 35.640625 L 102.53125 20.761719 C 99.152344 20.402344 95.691406 20.222656 92.175781 20.222656 "/>
<path style=" stroke:none;fill-rule:nonzero;fill:rgb(11.219788%,21.354675%,36.289978%);fill-opacity:1;" d="M 158.261719 37.464844 C 156.796875 38.84375 153.953125 40.882812 151.558594 40.929688 C 149.90625 40.84375 149.820312 39.285156 150.933594 37.152344 C 155.15625 29.019531 159.644531 24.710938 165.109375 24.753906 L 166.09375 24.753906 Z M 165.683594 20.222656 C 155.507812 20.222656 149.246094 26.175781 143.734375 39.15625 C 142.355469 42.398438 141.554688 46.441406 146.265625 46.402344 C 148.933594 46.355469 153.421875 44.886719 156.574219 42.707031 C 156.308594 43.773438 156.175781 45.242188 156.265625 46.128906 L 163.425781 46.128906 C 163.6875 43.328125 164.753906 39.867188 167.109375 35.640625 L 176 20.761719 C 172.621094 20.402344 169.152344 20.222656 165.683594 20.222656 "/>
<g clip-path="url(#clip1)" clip-rule="nonzero">
<path style=" stroke:none;fill-rule:nonzero;fill:rgb(11.219788%,21.354675%,36.289978%);fill-opacity:1;" d="M 142.441406 53.328125 L 140.085938 53.328125 C 137.066406 53.328125 134.394531 51.285156 133.601562 48.394531 L 130.046875 34.980469 L 123.421875 46.128906 L 115.820312 46.128906 L 137.066406 10.132812 C 139.820312 5.464844 142.664062 3.773438 147.734375 3.773438 L 148.535156 3.773438 L 134.394531 27.644531 L 144.976562 20.355469 L 153.46875 20.355469 L 135.644531 32.667969 L 142.441406 53.328125 "/>
</g>
<path style=" stroke:none;fill-rule:nonzero;fill:rgb(11.219788%,21.354675%,36.289978%);fill-opacity:1;" d="M 72.3125 0 C 65.15625 0 61.421875 1.910156 54.398438 6.976562 L 30.582031 24.132812 L 15.335938 24.132812 C 10.929688 24.132812 7.382812 24.3125 4.621094 26.929688 L 0.667969 30.578125 C 0.667969 30.578125 12.132812 30.128906 22.800781 29.726562 L 0 46.179688 L 9.867188 46.179688 L 33.203125 29.335938 C 37.734375 29.152344 40.839844 29.070312 40.890625 29.070312 C 46.3125 28.925781 49.335938 24.136719 49.335938 24.136719 L 40.402344 24.136719 L 59.242188 10.53125 L 45.246094 33.195312 C 42.265625 38.398438 40.800781 42.132812 40.3125 46.128906 L 48.402344 46.128906 C 48.710938 42.753906 49.867188 39.242188 51.953125 35.773438 L 71.023438 3.957031 C 72.351562 1.777344 73.511719 0 73.511719 0 L 72.3125 0 "/>
<path style=" stroke:none;fill-rule:nonzero;fill:rgb(11.219788%,21.354675%,36.289978%);fill-opacity:1;" d="M 110.265625 27.507812 C 110.175781 28.179688 110.445312 28.621094 111.820312 29.507812 L 114 30.925781 C 116.355469 32.488281 117.328125 34.84375 117.027344 36.753906 C 116.222656 42.082031 112.308594 46.394531 103.957031 46.394531 C 100.304688 46.394531 98.664062 46.265625 94.308594 45.550781 L 97.550781 40.085938 C 100.578125 40.617188 102.265625 40.890625 104.53125 40.890625 C 107.691406 40.890625 108.9375 39.464844 109.109375 38.308594 C 109.195312 37.644531 108.886719 36.84375 107.378906 35.816406 L 105.644531 34.578125 C 102.890625 32.578125 102.132812 31.023438 102.492188 28.574219 C 103.199219 23.867188 108.664062 20.21875 116.222656 20.21875 C 118.621094 20.21875 121.199219 20.355469 124.042969 20.667969 L 120.980469 25.828125 C 119.105469 25.6875 116.089844 25.507812 113.953125 25.601562 C 111.820312 25.644531 110.398438 26.394531 110.265625 27.507812 "/>
</g>
</svg>

<svg xmlns="http://www.w3.org/2000/svg" width="176pt" height="71.107" viewBox="0 0 176 53.33"><defs><clipPath id="a"><path d="M115 3h39v50.328h-39Zm0 0"/></clipPath></defs><path d="m86.313 2.09-20.09 33.73c-2.094 3.47-3.243 6.977-3.559 10.356h-7.863c.535-4.27 2.226-8.313 5.644-14.137l14.04-23.55c2.804-4.665 5.605-6.36 10.675-6.36h1.153zM84.754 37.465c-1.465 1.379-4.309 3.418-6.707 3.465-1.649-.086-1.734-1.645-.629-3.778 4.23-8.132 8.715-12.441 14.18-12.398h.98Zm7.422-17.242c-10.176 0-16.442 5.953-21.95 18.933-1.382 3.242-2.183 7.285 2.532 7.246 2.664-.047 7.152-1.515 10.312-3.695-.27 1.066-.406 2.535-.312 3.422h7.152c.266-2.8 1.332-6.262 3.684-10.488l8.937-14.88c-3.379-.359-6.84-.538-10.355-.538M158.262 37.465c-1.465 1.379-4.309 3.418-6.703 3.465-1.653-.086-1.739-1.645-.625-3.778 4.222-8.132 8.71-12.441 14.175-12.398h.985Zm7.422-17.242c-10.176 0-16.438 5.953-21.95 18.933-1.379 3.242-2.18 7.285 2.532 7.246 2.668-.047 7.156-1.515 10.308-3.695-.265 1.066-.398 2.535-.308 3.422h7.16c.262-2.8 1.328-6.262 3.683-10.488L176 20.76a98 98 0 0 0-10.316-.538" style="stroke:none;fill-rule:nonzero;fill:#1d365d;fill-opacity:1"/><g clip-path="url(#a)"><path d="M142.441 53.328h-2.355c-3.02 0-5.691-2.043-6.484-4.933l-3.555-13.415-6.625 11.149h-7.602l21.246-35.996c2.754-4.668 5.598-6.36 10.668-6.36h.801l-14.14 23.872 10.582-7.29h8.492l-17.824 12.313z" style="stroke:none;fill-rule:nonzero;fill:#1d365d;fill-opacity:1"/></g><path d="M72.313 0c-7.157 0-10.891 1.91-17.915 6.977L30.582 24.133H15.336c-4.406 0-7.953.18-10.715 2.797L.668 30.578s11.465-.45 22.133-.851L0 46.18h9.867l23.336-16.844c4.531-.184 7.637-.266 7.688-.266 5.422-.144 8.445-4.933 8.445-4.933h-8.934l18.84-13.606-13.996 22.664c-2.98 5.203-4.445 8.938-4.934 12.934h8.09c.309-3.375 1.465-6.887 3.551-10.356l19.07-31.816A168 168 0 0 1 73.512 0zM110.266 27.508c-.09.672.18 1.113 1.554 2l2.18 1.418c2.355 1.562 3.328 3.918 3.027 5.828-.804 5.328-4.718 9.64-13.07 9.64-3.652 0-5.293-.128-9.648-.843l3.242-5.465c3.027.531 4.715.805 6.98.805 3.16 0 4.406-1.426 4.578-2.582.086-.664-.222-1.465-1.73-2.493l-1.734-1.238c-2.754-2-3.512-3.555-3.153-6.004.707-4.707 6.172-8.355 13.73-8.355 2.4 0 4.977.136 7.821.449l-3.063 5.16c-1.875-.14-4.89-.32-7.027-.226-2.133.043-3.555.793-3.687 1.906" style="stroke:none;fill-rule:nonzero;fill:#1d365d;fill-opacity:1"/></svg>
